X: 33
U:~=!turn!
M:C|
L:1/8
K:E aeolian
{/B}cABG TE2 E :: d | (ef){/f}ge {/^c}dBBe | {/B}cA A/A/A {/^c}(dB)Bd |
[1 ef{/f}ge {/^c}dBBe | {/B}cABG TE2 E :| [2 efge dgBb | {/B}cABG TE2 E |]


